X:050
T:Hornpipe TS.050
M:C|
L:1/8
Q:1/2=88
S:Thomas Sands’ MS,1810,Lincolnshire
R:.hornpipe
O:England;Lincolnshire
Z:vmp.Ruairidh Greig, 2011
K:Bb
FE|DFBF dFED|EGBG ecBA|Bdfd gecB|AcF2F2FE|
DFBF dFED|EGBG ecBA|Bdfd gecB|BAcAB2:|
|:cB|Acc2Acc2|Bdd2Bdd2|egg2egg2|fgaaa2FE|
DFBF dFED|EGBG ecBA|Bdfd gedc|BAcA B2:|]

